assets/img/lunar.svg

<svg fill="none" height="209" viewBox="0 0 209 209" width="209" xmlns="http://www.w3.org/2000/svg"><rect fill="#fff" fill-opacity=".07" height="209" rx="22" width="209"/><g fill="#ffdb67"><path d="m104.5 158c-14.1891 0-27.797-5.637-37.8302-15.67s-15.6698-23.641-15.6698-37.83c0-14.1891 5.6366-27.797 15.6698-37.8302 10.0331-10.0332 23.6411-15.6698 37.8302-15.6698v53.5z" fill-opacity=".68"/><path d="m104.5 158c14.189 0 27.797-5.637 37.83-15.67s15.67-23.641 15.67-37.83c0-14.1891-5.637-27.797-15.67-37.8302s-23.641-15.6698-37.83-15.6698v53.5z"/></g></svg>

<svg width="209" height="209" viewBox="0 0 209 209" fill="none" xmlns="http://www.w3.org/2000/svg">
<rect width="209" height="209" rx="22" fill="white" fill-opacity="0.07"/>
<path d="M104.5 158C90.3109 158 76.703 152.363 66.6698 142.33C56.6366 132.297 51 118.689 51 104.5C51 90.3109 56.6366 76.703 66.6698 66.6698C76.7029 56.6366 90.3109 51 104.5 51L104.5 104.5L104.5 158Z" fill="#FFDB67" fill-opacity="0.68"/>
<path d="M104.5 158C118.689 158 132.297 152.363 142.33 142.33C152.363 132.297 158 118.689 158 104.5C158 90.3109 152.363 76.703 142.33 66.6698C132.297 56.6366 118.689 51 104.5 51L104.5 104.5L104.5 158Z" fill="#FFDB67"/>
</svg>
